X: 28450
T: Mulqueeney's
R: reel
M: 4/4
K: Dmajor
|B2 Ac BG G2|BGdG BG G2|B2 Ac BGG2|Bdef gedc
B2 Ac BG G2|BGdG BG G2|B2 Ac BGG2|Bdef g2 fg|
a2 ag a2 ag|fgab c'2 bc'|a2 ag abag|fdef g2 fg|
a2 ag a2 ag|fgab c'2 bc'|d'b b2 c'a a2|gbaf gedc|

